!!!COM: Bach, Johann Sebastian
!!!OTA: Das wohltemperirte Clavier
!!!OPR: Das wohltemperierte Klavier
!!!OTL: Fuga 23, Vol. 1
!!!XEN: The Well-Tempered Clavier, Volume 1, Fugue 23.
!!!ONB: B major, 4-part
!!!SCT: BWV 868b
!!!YEC: Copyright 1994, David Huron
!!!YEM: Rights to all derivative electronic formats reserved.
**kern	**kern	**kern	**kern
*staff2	*staff2	*staff1	*staff1
*clefF4	*clefF4	*clefG2	*clefG2
*k[f#c#g#d#a#]	*k[f#c#g#d#a#]	*k[f#c#g#d#a#]	*k[f#c#g#d#a#]
*M4/4	*M4/4	*M4/4	*M4/4
*B:	*B:	*B:	*B:
*MM58	*MM58	*MM58	*MM58
=1	=1	=1	=1
1r	8r	1r	1r
.	8B	.	.
.	8A#	.	.
.	8B	.	.
.	4c#	.	.
.	8F#	.	.
.	16G#	.	.
.	16A#	.	.
=2	=2	=2	=2
1r	8B	1r	1r
.	16c#	.	.
.	16d#	.	.
.	8e	.	.
.	8d#	.	.
.	2c#T	.	.
=3	=3	=3	=3
1r	4.B	8r	1r
.	.	8f#	.
.	.	8d#	.
.	16c#	8e	.
.	16B	.	.
.	16A#	4f#	.
.	16G#	.	.
.	16F#	.	.
.	16E	.	.
.	8D#	8B	.
.	8B	16d#	.
.	.	16e#	.
=4	=4	=4	=4
1r	8A#	8f#	1r
.	16B	16g#	.
.	16c#	16a#	.
.	16d#	8b	.
.	16e#	.	.
.	[8f#	8a#	.
.	8f#]	2g#	.
.	16en	.	.
.	16d#	.	.
.	16e	.	.
.	16B	.	.
.	[8e	.	.
=5	=5	=5	=5
1r	8e]	4f#	8r
.	8d#	.	8b
.	8c#	8r	8a#
.	[8B	16g#	8b
.	.	16f#	.
.	8B]	16e	4cc#
.	.	16d#	.
.	16A#	16c#	.
.	16G#	16B	.
.	8A#	8A#	8f#
.	8d#	8f#	16g#
.	.	.	16a#
=6	=6	=6	=6
1r	4G#	8d#	8b
.	.	16e	16cc#
.	.	16f#	16dd#
.	8r	16g#	8ee
.	.	16a#	.
.	16g#	[8b	8dd#
.	16f#	.	.
.	8e	8b]	[2cc#
.	8c#	16a#	.
.	.	16g#	.
.	8r	16a#	.
.	.	16b	.
.	16f#	16a#	.
.	16e	16g#	.
=7	=7	=7	=7
8r	8d#	4.f#	8cc#]
8F#	8c#	.	16b
.	.	.	16a#
8D#	8B	.	8b
8E	8G#	[8e	16cc#
.	.	.	16b
4F#	4F#	8e]	16a#
.	.	.	16g#
.	.	16d#	16f#
.	.	16c#	16e
8BB	4r	16d#	8d#
.	.	16e	.
16D#	.	16f#	8b
16E#	.	16g#	.
=8	=8	=8	=8
8F#	1r	4c#	8a#
16G#	.	.	16b
16A#	.	.	16cc#
8B	.	8r	16dd#
.	.	.	16ee#
8A#	.	16dd#	[8ff#
.	.	16cc#	.
2G#	.	8b	8ff#]
.	.	8g#	16ee#
.	.	.	16dd#
.	.	16r	4ee#
.	.	16dd#	.
.	.	16cc#	.
.	.	16b	.
=9	=9	=9	=9
4F#	1r	4a#	8ff#
.	.	.	16cc#
.	.	.	16b
4r	.	16r	8cc#
.	.	16g#	.
.	.	16f#	8dd#
.	.	16e	.
8r	.	4d#	4b#
16G#	.	.	.
16An	.	.	.
16G#	.	8e	8cc#
16F#	.	.	.
16E	.	8f#	8dd#
16D#	.	.	.
=10	=10	=10	=10
8C#	1r	[2g#	16ee
.	.	.	16dd#
8c#	.	.	16ee
.	.	.	16ff#
8d#	.	.	16ee
.	.	.	16dd#
8e	.	.	16cc#
.	.	.	16b
8f#	.	8g#]	4a#
16F#	.	8c#	.
16G#	.	.	.
16F#	.	8d#	8b
16E	.	.	.
16D#	.	8e	8cc#
16C#	.	.	.
=11	=11	=11	=11
16BB	2r	8f#	8dd#
16AA#	.	.	.
16BB	.	8b	8dd#
16C#	.	.	.
16BB	.	8cc#	8ee
16AAn	.	.	.
16GG#	.	8dd#	8ff#
16FF#	.	.	.
8EE	8r	8ee	16gg#
.	.	.	16aan
8r	8B	8r	16gg#
.	.	.	16ff#
4r	8A#	4r	16ee
.	.	.	16dd#
.	8B	.	16cc#
.	.	.	16b
=12	=12	=12	=12
8r	4c#	4r	8a#
8E	.	.	16b
.	.	.	16cc#
8D#	8F#	8r	8dd#
16E	16G#	8f#	8cc#
16F#	16A#	.	.
4.G#	8B	8d#	[4b
.	16c#	16e	.
.	16d#	16f#	.
.	8e	16g#	16b]
.	.	16a#	16cc#
8F#	8d#	[8b	8dd#
=13	=13	=13	=13
4E	2c#	8b]	16ee
.	.	.	16ff#
.	.	16a#	[8gg#
.	.	16g#	.
4F#	.	[4a#	8gg#]
.	.	.	16ff#
.	.	.	16ee
8B	8B	8a#]	4dd#
16BB	8r	16g#	.
16AA#	.	16f##	.
8BB	4r	8g#	16r
.	.	.	16dd#
8C#	.	8a#	16cc#
.	.	.	16b
=14	=14	=14	=14
4D#	8r	4f##	4a#
.	16d#	.	.
.	16e	.	.
8r	16d#	8g#	8b
.	16c#	.	.
8C#	16B	8a#	8cc#
.	16A#	.	.
8BB	4G#	16b	[2dd#
.	.	16a#	.
8GG#	.	16b	.
.	.	16cc#	.
8AA#	4r	16b	.
.	.	16a#	.
8BB	.	16g#	.
.	.	16f#	.
=15	=15	=15	=15
4C#	8r	4e#	8dd#]
.	16c#	.	8g#
.	16d#	.	.
8r	16c#	8f#	8a#
.	16B	.	.
8BB	16A#	8g#	8b
.	16G#	.	.
[2AA#	16F#	8a#	8cc#
.	16E	.	.
.	16F#	8c#	8a#
.	16G#	.	.
.	16F#	8d#	8b
.	16E	.	.
.	16D#	8en	8cc#
.	16C#	.	.
=16	=16	=16	=16
16AA#]	8BB	8f#	2dd#
16AA#	.	.	.
16BB	8r	8f#	.
16C#	.	.	.
16BB	4r	8e#	.
16AA#	.	.	.
16GG#	.	8f#	.
16FF#	.	.	.
8EE#	8r	4g#	[2cc#
8E#	8B	.	.
8F#	8A#	8c#	.
8E#	8G#	16d#	.
.	.	16e#	.
=17	=17	=17	=17
4.D#	[4F#	8f#	8cc#]
.	.	16g#	16b
.	.	16a#	16cc#
.	16F#]	8b	16dd#
.	16G#	.	16ee#
8C#	16F#	8a#	[8ff#
.	16E#	.	.
8BB	16D#	[4g#	16ff#]
.	16C#	.	16ee#
8GG#	16D#	.	16ff#
.	16BB	.	16gg#
8C#	[4C#	16g#]	8.ee#
.	.	16a#	.
8CC#	.	8b	.
.	.	.	16ff#
=18	=18	=18	=18
8FF#	8C#]	4a#	8ff#
8r	16F#	.	8ff#
.	16En	.	.
4r	16F#	8b#	8gg#
.	16G#	.	.
.	16A#	[8dd#	8ff#
.	16B#	.	.
2r	8c#	8dd#]	4ee
.	16Bn	8cc#	.
.	16A#	.	.
.	16G#	4r	8bbn
.	16F#	.	.
.	16G#	.	16aa#
.	16A#	.	16gg#
=19	=19	=19	=19
1r	[2B	16r	8ff#
.	.	16d#	.
.	.	16e	16ee
.	.	16f#	16dd#
.	.	16g#	8cc#
.	.	16f#	.
.	.	16e	8dd#
.	.	16d#	.
.	16B]	4c#	2ee
.	16B	.	.
.	16A#	.	.
.	16G#	.	.
.	16F#	[4cc#	.
.	16E	.	.
.	16D#	.	.
.	16C#	.	.
=20	=20	=20	=20
1r	16BB	8cc#]	4dd#
.	16C#	.	.
.	16D#	8b	.
.	16E	.	.
.	16F#	8dd#	8r
.	16G#	.	.
.	16A#	8cc#	[8ff#
.	16F#	.	.
.	16G#	4b	16ff#]
.	16C#	.	16ee#
.	16D#	.	16ff#
.	16E#	.	16gg#
.	16F#	8ff#	16aa#
.	16BB	.	16gg#
.	[8B	16ee#	16aa#
.	.	16dd#	16bb
=21	=21	=21	=21
2r	16B]	8cc#	4ee#
.	16A#	.	.
.	16B	16b	.
.	16c#	16a#	.
.	16d#	8g#	[4ff#
.	16c#	.	.
.	16B	8a#	.
.	16A#	.	.
8r	[2G#	[2b	8ff#]
8BB	.	.	16een
.	.	.	16dd#
8AA#	.	.	16cc#
.	.	.	16b
8BB	.	.	16cc#
.	.	.	16dd#
=22	=22	=22	=22
4C#	8G#]	4b]	16ee
.	.	.	16ff#
.	16F#	.	[8gg#
.	16E	.	.
8FF#	[4F#	8a#	16gg#]
.	.	.	16gg#
16GG#	.	[8cc#	16ff#
16AA#	.	.	16ee
8BB	4F#]	16cc#]	[4dd#
.	.	16cc#	.
16C#	.	16b	.
16D#	.	16a#	.
8E	4r	8g#	16dd#]
.	.	.	8cc#
8D#	.	8f#	.
.	.	.	[16b
=23	=23	=23	=23
2C#	1r	[4e	8b]
.	.	.	16a#
.	.	.	16b
.	.	8.e]	16cc#
.	.	.	16dd#
.	.	.	[8ee
.	.	16f#	.
8BB	.	16g#	8ee]
.	.	16a#	.
16B	.	[8b	16dd#
16c#	.	.	16ee
16B	.	8b]	16ff#
16An	.	.	16gg#
16G#	.	16cc#	[8aan
16F#	.	16dd#	.
=24	=24	=24	=24
4E	8r	8ee	16aa]
.	.	.	16gg#
.	8e	8r	16aan
.	.	.	16gg#
4An	8d#	4r	16ff#
.	.	.	16ee
.	8e	.	16dd#
.	.	.	16cc#
16D#	4f#	2r	8b#
16c#	.	.	.
16B#	.	.	8cc#
16A#	.	.	.
16G#	8B#	.	[4dd#
16F#	.	.	.
16E	16c#	.	.
16D#	16d#	.	.
=25	=25	=25	=25
16C#	8e	1r	8dd#]
16BBn	.	.	.
16AAn	16f#	.	16cc#
16GG#	16g#	.	16b#
16FF#	8an	.	[4cc#
16EE	.	.	.
16DD#	8g#	.	.
16CC#	.	.	.
8DD#	[4f#	.	16cc#]
.	.	.	16ee
16EE	.	.	16dd#
16FF#	.	.	16cc#
8GG#	16f#]	.	4b#
.	16a	.	.
8GG#	16g#	.	.
.	16f#	.	.
=26	=26	=26	=26
4CC#	4e	1r	8cc#
.	.	.	16g#
.	.	.	16f#
4r	16r	.	8g#
.	16c#	.	.
.	16B	.	8an
.	16An	.	.
8r	4G#	.	4e#
16C#	.	.	.
16Dn	.	.	.
16C#	8A	.	8f#
16BB	.	.	.
16AAn	8B	.	8g#
16GG#	.	.	.
=27	=27	=27	=27
8FF#	[2c#	1r	16an
.	.	.	16g#
8F#	.	.	16a
.	.	.	16b
8G#	.	.	16a
.	.	.	16g#
8An	.	.	16f#
.	.	.	16e
8B	8c#]	.	4d#
16BB	8F#	.	.
16C#	.	.	.
16BB	8G#	.	8e
16AAn	.	.	.
16GG#	8An	.	8f#
16FF#	.	.	.
=28	=28	=28	=28
16EE	8B	1r	8g#
16BB	.	.	.
16E	8B	.	8g#
16F#	.	.	.
16E	8c#	.	8a#
16D#	.	.	.
16C#	8d#	.	8b
16BB	.	.	.
8AA#	16e	.	[2cc#
.	16b	.	.
8FF#	16a#	.	.
.	16g#	.	.
8GG#	16f#	.	.
.	16e	.	.
8AA#	16d#	.	.
.	16c#	.	.
=29	=29	=29	=29
16BB	8d#	8r	8cc#]
16C#	.	.	.
16D#	8r	8b	8b
16E	.	.	.
16F#	4r	8a#	4r
16G#	.	.	.
16A#	.	8b	.
16B	.	.	.
2E	16r	4cc#	2r
.	16d#	.	.
.	16c#	.	.
.	16B	.	.
.	16A#	8f#	.
.	16G#	.	.
.	16F#	16g#	.
.	16E	16a#	.
=30	=30	=30	=30
4D#	16F#	8b	1r
.	16D#	.	.
.	16E	16cc#	.
.	16F#	16dd#	.
8C#	16G#	8ee	.
.	16A#	.	.
16G#	[8B	8dd#	.
16F#	.	.	.
16E	4B]	[2cc#	.
16D#	.	.	.
16C#	.	.	.
16D#	.	.	.
16E	8.A#	.	.
16G#	.	.	.
16F#	.	.	.
16E	16G#	.	.
=31	=31	=31	=31
4D#	4.F#	8cc#]	8r
.	.	16b	8ff#
.	.	16a#	.
4GG#	.	8b	8dd#
.	[8E	16cc#	8ee
.	.	16b	.
[2FF#	8E]	16a#	4ff#
.	.	16g#	.
.	16D#	16f#	.
.	16C#	16e	.
.	8D#	8d#	8b
.	8G#	8b	16dd#
.	.	.	16ee#
=32	=32	=32	=32
4FF#]	4C#	8a#	8ff#
.	.	16b	16gg#
.	.	16cc#	16aa#
16r	4r	16dd#	8bb
16GG#	.	16ee#	.
16AA#	.	[8ff#	8aa#
16BB	.	.	.
16C#	2r	8ff#]	2gg#
16D#	.	.	.
16E	.	16een	.
16F#	.	16dd#	.
16G#	.	[4ee	.
16A#	.	.	.
16B	.	.	.
16G#	.	.	.
=33	=33	=33	=33
16A#	2r	8ee]	[4ff#
16G#	.	.	.
16F#	.	16dd#	.
16E	.	16cc#	.
16D#	.	2b	8ff#]
16C#	.	.	.
16D#	.	.	16ee
16E	.	.	16dd#
2F#	8r	.	16cc#
.	.	.	16dd#
.	16c#	.	[8ee
.	16d#	.	.
.	16c#	4a#	16ee]
.	16B	.	16gg#
.	16A#	.	16ff#
.	16G#	.	16ee
=34	=34	=34	=34
1BB;	1F#;	1b;	1dd#;
==	==	==	==
*-	*-	*-	*-
!!!CDT: 1685/3/-1750/7/28
!!!OCY: Deutschland
!!!PPP: Coethen; Cothen; Co2then
!!!ODT: <1722//
!!!PDT: 1722
!!!AFR: fuga; fugue
!!!AST: polyphony
!!!AMT: simple quadruple
!!!SCA: Bach-Werke-Verzeichnis
!!!YOR: Bach Gesellschaft
!!!SMS: British Library, various
!!!AIN: cemba; clavi
!!!EEV: 1.0
!!!RDT: 1986 November 24
!!!YER: 1994 August 10
!!!EFL: 23/48
!!!VTS: 1402181546
